packages/ui-icons/src/Basic/24/Notification_24.svg

<svg viewBox="0 0 32 32" xmlns="http://www.w3.org/2000/svg">
<path fill-rule="evenodd" clip-rule="evenodd" d="M6 25V21.12L7.64 19.49V15.41C7.58622 13.6493 8.08341 11.9157 9.06221 10.4511C10.041 8.98644 11.4526 7.86389 13.1 7.24004C13.1893 6.85391 13.356 6.4899 13.59 6.17004C13.8632 5.79049 14.2265 5.48483 14.6472 5.28059C15.0679 5.07635 15.5328 4.97994 16 5.00004C16.4672 4.97994 16.9321 5.07635 17.3528 5.28059C17.7735 5.48483 18.1368 5.79049 18.41 6.17004C18.644 6.4899 18.8107 6.85391 18.9 7.24004C20.5474 7.86389 21.959 8.98644 22.9378 10.4511C23.9166 11.9157 24.4138 13.6493 24.36 15.41V19.49L26 21.12V25H19.46C19.4752 25.1664 19.4752 25.3337 19.46 25.5C19.46 26.4283 19.0913 27.3185 18.4349 27.9749C17.7785 28.6313 16.8883 29 15.96 29C15.0317 29 14.1415 28.6313 13.4851 27.9749C12.8287 27.3185 12.46 26.4283 12.46 25.5C12.4448 25.3337 12.4448 25.1664 12.46 25H6ZM24 23V22L22.36 20.37V15.41C22.4125 13.9785 21.9855 12.5705 21.1468 11.4092C20.308 10.248 19.1055 9.40009 17.73 9.00004L17 8.75004V8.00004C16.9944 7.76141 16.9216 7.5292 16.79 7.33004C16.6961 7.21376 16.5747 7.1227 16.4368 7.06509C16.2988 7.00748 16.1487 6.98512 16 7.00004C15.8513 6.98512 15.7012 7.00748 15.5632 7.06509C15.4253 7.1227 15.3039 7.21376 15.21 7.33004C15.0784 7.5292 15.0056 7.76141 15 8.00004V8.75004L14.27 9.00004C12.8876 9.40171 11.68 10.2556 10.8406 11.4251C10.0011 12.5945 9.57835 14.0118 9.64 15.45V20.36L8 22V23H24ZM14.59 25C14.5295 25.1598 14.499 25.3293 14.5 25.5C14.5 25.8979 14.658 26.2794 14.9393 26.5607C15.2206 26.842 15.6022 27 16 27C16.3978 27 16.7794 26.842 17.0607 26.5607C17.342 26.2794 17.5 25.8979 17.5 25.5C17.501 25.3293 17.4705 25.1598 17.41 25H14.59Z" />
</svg>

<svg viewBox="0 0 32 32" xmlns="http://www.w3.org/2000/svg"><path fill-rule="evenodd" clip-rule="evenodd" d="M6 25v-3.88l1.64-1.63v-4.08a8.46 8.46 0 0 1 5.46-8.17 2.93 2.93 0 0 1 1.547-1.96c.42-.204.886-.3 1.353-.28a2.82 2.82 0 0 1 2.41 1.17c.234.32.4.684.49 1.07a8.46 8.46 0 0 1 5.46 8.17v4.08L26 21.12V25h-6.54c.015.166.015.334 0 .5a3.5 3.5 0 1 1-7 0 2.747 2.747 0 0 1 0-.5H6Zm18-2v-1l-1.64-1.63v-4.96A6.43 6.43 0 0 0 17.73 9L17 8.75V8a1.27 1.27 0 0 0-.21-.67A.9.9 0 0 0 16 7a.9.9 0 0 0-.79.33A1.27 1.27 0 0 0 15 8v.75l-.73.25a6.43 6.43 0 0 0-4.63 6.45v4.91L8 22v1h16Zm-9.41 2c-.06.16-.091.33-.09.5a1.5 1.5 0 1 0 3 0 1.39 1.39 0 0 0-.09-.5h-2.82Z"/></svg>
